X:226
T:He Leadeth Me
%%stretchlast false
M:4/4
L:1/4
K:Bb clef=C1
"^I"[B,,F,DF] [B,,F,B,D]3/2 "^ii"[B,,E,F,C]/ "^I"[B,,D,F,B,] | [B,,D,B,F] "^IV"[E,B,G] [E,G,B,E] [E,G,B,E] | [E,B,EG] "^I"[B,,B,DF]3/2 [B,,F,B,D]/ [B,,F,B,D] | "^ii7³"[B,,E,B,C]/ "^I"[B,,D,B,]/ "^I²"[F,,F,B,D] [F,,F,B,D] "^V"[F,,F,A,C] | [F,,F,A,F] "^I"[B,,F,B,D]3/2 "^ii"[B,,E,F,C]/ "^I"[B,,D,F,B,] | [B,,D,B,F] "^IV"[E,B,G] [E,G,E] [E,G,EB] | [E,B,EA]/ [E,B,EG]/ "^I"[B,,B,DF] [B,,F,B,D] "^vi"[G,,G,B,D]/ "^vii7³"[G,,G,A,C]/ | "^vi"[G,,D,G,B,]/ "^vii"[G,,D,A,C]/ "^I²"[F,,F,B,D]3/2 "^V7"[F,,E,A,C]/ "^I"[B,,D,B,] | [B,,F,DF] [B,,B,DF] "^I¹"[D,F,DB] "^V"[F,CA] | [E,A,FB] "^I¹"[D,B,FB] "^vii°"[E,B,EA]/ "^IV"[E,B,EG]/ "^I"[B,,B,DF] | "^IV²"[B,,B,EG] "^I"[B,,B,DF] [B,,F,B,D] "^vi"[G,,G,B,D]/ "^vii7³"[G,,G,A,C]/ | "^vi"[G,,D,G,B,]/ "^vii"[G,,D,A,C]/ "^I²"[F,,F,B,D] [F,,F,B,D] "^V"[F,,F,A,C] | "^V7"[F,,E,A,F] "^I"[B,,D,B,F] "^I¹"[D,F,B,B] "^V"[F,CA] | "^V7³"[E,A,Fc] "^I¹"[D,B,FB] "^vii°"[E,B,EA]/ "^IV"[E,B,EG]/ "^I"[B,,B,DF] | "^IV²"[B,,B,EG] "^I"[B,,B,DF] [B,,F,B,D] "^vi"[G,,G,B,D]/ "^vii7³"[G,,G,A,C]/ | "^vi"[G,,D,G,B,]/ "^vii"[G,,D,A,C]/ "^I²"[F,,F,B,D]3/2 "^V7"[F,,E,A,C]/ "^I"[B,,D,B,] |]
